packages/icons/src/svg/network.svg

<svg xmlns="http://www.w3.org/2000/svg" viewBox="0 0 16 16"><path d="M7.65676.00025a.28064.28064,0,0,0-.15649.0315A12.15446,12.15446,0,0,0,5.18784,3.90663h5.62482A11.60894,11.60894,0,0,0,8.50023.03175a2.5074,2.5074,0,0,0-.5-.0315H7.65676Zm-.90647.094A7.81181,7.81181,0,0,0,1.03147,3.90663H4.65635A11.74947,11.74947,0,0,1,6.75029.09425Zm2.53142,0a13.07134,13.07134,0,0,1,2.09393,3.81238h3.49989A7.97062,7.97062,0,0,0,9.28171.09425ZM.75048,4.43761A8.12051,8.12051,0,0,0,.0005,7.844V8.0315H4.06287a11.55676,11.55676,0,0,1,.40649-3.59389Zm4.24987,0A10.70594,10.70594,0,0,0,4.56286,8.0315h6.90628a11.58136,11.58136,0,0,0-.469-3.59389Zm6.5313,0a11.55676,11.55676,0,0,1,.40649,3.59389H16.0005V7.969a7.84272,7.84272,0,0,0-.844-3.53139ZM.032,8.56248a8.30424,8.30424,0,0,0,1.18746,3.59389H4.90685a12.65571,12.65571,0,0,1-.81247-3.59389Zm4.56236,0a12.75449,12.75449,0,0,0,.844,3.59389h5.12484a14.01032,14.01032,0,0,0,.875-3.59389Zm7.31227,0a13.76245,13.76245,0,0,1-.78148,3.59389h3.68738A7.87652,7.87652,0,0,0,15.969,8.56248ZM1.563,12.68735a7.93192,7.93192,0,0,0,5.31233,3.2189,17.31954,17.31954,0,0,1-1.78144-3.2189H1.563Zm4.09387,0a19.96722,19.96722,0,0,0,1.90644,3.3124h.875a19.10752,19.10752,0,0,0,1.90644-3.3124H5.65682Zm5.24984,0a15.67355,15.67355,0,0,1-1.78144,3.2189,7.999,7.999,0,0,0,5.34383-3.2189Z"/></svg>

<svg xmlns="http://www.w3.org/2000/svg" viewBox="0 0 16 16">
	<path d="M7.657 0A.28.28 0 0 0 7.5.032a12.154 12.154 0 0 0-2.312 3.875h5.625A11.609 11.609 0 0 0 8.5.032 2.507 2.507 0 0 0 8 0h-.343zM6.75.094a7.812 7.812 0 0 0-5.719 3.813h3.625A11.75 11.75 0 0 1 6.75.094zm2.532 0a13.071 13.071 0 0 1 2.094 3.813h3.5A7.97 7.97 0 0 0 9.282.094zM.75 4.438A8.12 8.12 0 0 0 0 7.844v.187h4.063a11.557 11.557 0 0 1 .406-3.593zm4.25 0a10.706 10.706 0 0 0-.437 3.593h6.906A11.581 11.581 0 0 0 11 4.438zm6.532 0a11.557 11.557 0 0 1 .406 3.594H16v-.063a7.843 7.843 0 0 0-.844-3.531zM.032 8.562a8.304 8.304 0 0 0 1.187 3.594h3.688a12.656 12.656 0 0 1-.813-3.594zm4.562 0a12.754 12.754 0 0 0 .844 3.594h5.125a14.01 14.01 0 0 0 .875-3.594zm7.313 0a13.762 13.762 0 0 1-.782 3.594h3.688a7.877 7.877 0 0 0 1.156-3.594zM1.563 12.687a7.932 7.932 0 0 0 5.312 3.22 17.32 17.32 0 0 1-1.781-3.22H1.563zm4.094 0A19.967 19.967 0 0 0 7.563 16h.875a19.108 19.108 0 0 0 1.907-3.313H5.657zm5.25 0a15.674 15.674 0 0 1-1.782 3.22 7.999 7.999 0 0 0 5.344-3.22z"/>
</svg>
